X:1
T:Monaghan Twig, The
R:reel
M:4/4
L:1/8
K:Amix
cAAB cded|cAAG ~E3B|cAAB cded|BAGB d2ed:|
cdef gfed|(3Bcd ef ~e3d|cdef ~g3e|dBGB d2ed|
cded cded|cAAB cdef|~g3e deed|BAGB d2ed|]
</abc>
